picto/cableway-left-framed.svg

<svg class="color-immutable" width="30" height="30" viewBox="0 0 30 30" fill="none" xmlns="http://www.w3.org/2000/svg"><path d="M30 0H0V30H30V0Z" fill="#2D327D"/><path d="M25.5 3C26.325 3 27 3.675 27 4.5V25.5C27 26.325 26.325 27 25.5 27H4.5C3.675 27 3 26.325 3 25.5V4.5C3 3.675 3.675 3 4.5 3H25.5ZM25.5 2.625H4.5C3.46613 2.625 2.625 3.46613 2.625 4.5V25.5C2.625 26.5339 3.46613 27.375 4.5 27.375H25.5C26.5339 27.375 27.375 26.5339 27.375 25.5V4.5C27.375 3.46613 26.5339 2.625 25.5 2.625Z" fill="white"/><path d="M18.2238 8.43803L11.7596 7.30583C11.4278 7.24771 11.1857 6.95933 11.1857 6.62258C11.1857 6.23948 11.4965 5.92868 11.8794 5.92868C11.9195 5.92868 11.9595 5.93228 11.999 5.93918L18.4631 7.07153C18.7951 7.12966 19.0372 7.41803 19.0372 7.75493C19.0372 8.13781 18.7263 8.44868 18.3434 8.44868C18.3034 8.44861 18.2633 8.44501 18.2238 8.43803Z" fill="white"/><path d="M24.0008 10.516L6.00061 7.3629V6.6777L24.0008 9.8307V10.516Z" fill="white"/><path d="M6.75007 14.2501C6.33615 14.2501 6 14.586 6 15.0002V23.25C6 23.6641 6.33615 24 6.75007 24H23.2499C23.6639 24 24 23.6641 24 23.2499V15.0001C24 14.5859 23.6639 14.25 23.2499 14.25H19.5375L17.1679 9.6975L15.8657 9.46927L18.3539 14.25H11.6083L14.2887 9.19305L13.2402 9.0096L10.4624 14.25H6.75007V14.2501ZM18.2498 19.1251V15.3751C18.2498 15.1681 18.4178 15.0001 18.6248 15.0001H22.875C23.0819 15.0001 23.2499 15.1681 23.2499 15.3751V19.1251C23.2499 19.3319 23.082 19.5001 22.875 19.5001H18.6247C18.4178 19.5001 18.2498 19.3319 18.2498 19.1251ZM12.4997 19.1251V15.3751C12.4997 15.1681 12.6679 15.0001 12.8749 15.0001H17.125C17.332 15.0001 17.5001 15.1681 17.5001 15.3751V19.1251C17.5001 19.3319 17.3319 19.5001 17.125 19.5001H12.8749C12.6679 19.5001 12.4997 19.3319 12.4997 19.1251ZM6.75007 19.1251V15.3751C6.75007 15.1681 6.918 15.0001 7.12493 15.0001H11.3752C11.5822 15.0001 11.7502 15.1681 11.7502 15.3751V19.1251C11.7502 19.3319 11.5822 19.5001 11.3752 19.5001H7.12493C6.918 19.5001 6.75007 19.3319 6.75007 19.1251Z" fill="white"/></svg>

<svg class="color-immutable" width="30" height="30" viewBox="0 0 30 30" fill="none" xmlns="http://www.w3.org/2000/svg"><g clip-path="url(#a)"><path d="M30 0H0v30h30V0Z" fill="#2D327D"/><path d="M25.5 3c.825 0 1.5.675 1.5 1.5v21c0 .825-.675 1.5-1.5 1.5h-21c-.825 0-1.5-.675-1.5-1.5v-21C3 3.675 3.675 3 4.5 3h21Zm0-.375h-21A1.877 1.877 0 0 0 2.625 4.5v21c0 1.034.841 1.875 1.875 1.875h21a1.877 1.877 0 0 0 1.875-1.875v-21A1.877 1.877 0 0 0 25.5 2.625Z" fill="#fff"/><path d="M18.224 8.438 11.76 7.306a.694.694 0 0 1 .239-1.367l6.464 1.133a.694.694 0 0 1-.24 1.366ZM24 10.516 6 7.363v-.685L24 9.83v.685ZM6.75 14.25A.75.75 0 0 0 6 15v8.25c0 .414.336.75.75.75h16.5a.75.75 0 0 0 .75-.75V15a.75.75 0 0 0-.75-.75h-3.712l-2.37-4.553-1.302-.228 2.488 4.781h-6.746l2.68-5.057-1.048-.183-2.778 5.24H6.75Zm11.5 4.875v-3.75c0-.207.168-.375.375-.375h4.25c.207 0 .375.168.375.375v3.75a.375.375 0 0 1-.375.375h-4.25a.375.375 0 0 1-.375-.375Zm-5.75 0v-3.75c0-.207.168-.375.375-.375h4.25c.207 0 .375.168.375.375v3.75a.375.375 0 0 1-.375.375h-4.25a.375.375 0 0 1-.375-.375Zm-5.75 0v-3.75c0-.207.168-.375.375-.375h4.25c.207 0 .375.168.375.375v3.75a.375.375 0 0 1-.375.375h-4.25a.375.375 0 0 1-.375-.375Z" fill="#fff"/></g><defs><clipPath id="a"><path fill="#fff" d="M0 0h30v30H0z"/></clipPath></defs></svg>
